!!!OTL: DES MORGENS ZWISCHEN DREIN UND VIEREN
!!!ARE: Europa, Mitteleuropa, Deutschland
!!!SCT: F0580
!!!YEM: Copyright 1995, estate of Helmut Schaffrath.
**kern
*ICvox
*Ivox
*M4/4
*k[f#]
*G:
{8g
8b
=1
8dd
8dd
8dd
8gg
4b
4g
=2
4ee
4dd
4r}
{8g
8b
=3
8dd
8dd
8dd
8dd
8ee
8dd
8cc
8b
=4
4b
4a
4r}
{8g
8b
=5
4.dd
8b
8cc
8b
8cc
8dd
=6
4b
2r}
{8gg
8ee
=7
4.dd
8b
8dd
8cc
8b
8a
=8
4g
8r}
{8g
8dd
8dd
8dd
8dd
=9
8dd
8b
8cc
8a
8g
8dd
8dd
8dd
=10
8dd
8b
8cc
8a}
{8gg
8gg
8ff#
8ee
=11
4.dd
8b
8dd
8cc
8b
8a
=12
4g
2r}
==
!!!AGN: Soldaten - Lied
!!!ONB: ESAC (Essen Associative Code) Database: FINK
!!!AMT: simple quadruple
!!!AIN: vox
!!!EED: Helmut Schaffrath
!!!EEV: 1.0
*-
